src/assets/icons/copy.svg

<svg viewBox="0 0 24 24" xmlns="http://www.w3.org/2000/svg" fill="none">
  <path
    fill-rule="evenodd"
    clip-rule="evenodd"
    d="M9.29289 3.29289C9.48043 3.10536 9.73478 3 10 3H14C15.65693 3 17 4.34315 17 6V15C17 16.6569 15.6569 18 14 18H7C5.34315 18 4 16.6569 4 15V9C4 8.73478 4.10536 8.48043 4.29289 8.29289L9.29289 3.29289ZM14 5H11V9C11 9.55228 10.5523 10 10 10H6V15C6 15.5523 6.44772 16 7 16H14C14.5523 16 15 15.5523 15 15V6C15 5.44772 14.5523 5 14 5ZM7.41421 8H9V6.41421L7.41421 8ZM19 5C19.5523 5 20 5.44772 20 6V18C20 19.6569 18.6569 21 17 21H7C6.44772 21 6 20.5523 6 20C6 19.4477 6.44772 19 7 19H17C17.5523 19 18 18.5523 18 18V6C18 5.44772 18.4477 5 19 5Z"
    fill="currentColor"
  />
</svg>

<svg xmlns="http://www.w3.org/2000/svg" fill="none" viewBox="0 0 24 24"><path fill="currentColor" fill-rule="evenodd" d="M9.293 3.293A1 1 0 0 1 10 3h4a3 3 0 0 1 3 3v9a3 3 0 0 1-3 3H7a3 3 0 0 1-3-3V9a1 1 0 0 1 .293-.707zM14 5h-3v4a1 1 0 0 1-1 1H6v5a1 1 0 0 0 1 1h7a1 1 0 0 0 1-1V6a1 1 0 0 0-1-1M7.414 8H9V6.414zM19 5a1 1 0 0 1 1 1v12a3 3 0 0 1-3 3H7a1 1 0 1 1 0-2h10a1 1 0 0 0 1-1V6a1 1 0 0 1 1-1" clip-rule="evenodd"/></svg>
